X:716
T:Långdans efter Pucksson
N:Efter skomakare Pucksson, Klintehamn m. fl.
O:Gotland, Klintehamn
Z:Clara Andermo 2004-01-13
R:Långdans
B:Gotlandstoner nr 716
M:2/4
L:1/8
K:F
(fa)(ga)|(fg)(fe)|(dc)(de)|fc AF|(fa)(ga) (fg)(fe)|(dc)(de)|f2 F2:|
|:afca|bgcb|afca|(gfed) (d2c2)|afca|bgcb|(af)(ge)2 z2:|

